svgs/regular/apartment.svg

<svg xmlns="http://www.w3.org/2000/svg" viewBox="0 0 576 512"><!--! Font Awesome Pro 6.6.0 by @fontawesome - https://fontawesome.com License - https://fontawesome.com/license (Commercial License) Copyright 2024 Fonticons, Inc. --><path d="M176 96l0-32c0-8.8 7.2-16 16-16l192 0c8.8 0 16 7.2 16 16l0 128c0 26.5 21.5 48 48 48l64 0c8.8 0 16 7.2 16 16l0 192c0 8.8-7.2 16-16 16l-128 0-32 0-32 0 0-48c0-17.7-14.3-32-32-32s-32 14.3-32 32l0 48-64 0L64 464c-8.8 0-16-7.2-16-16l0-288c0-8.8 7.2-16 16-16l64 0c26.5 0 48-21.5 48-48zm16 416l64 0 64 0 32 0 32 0 128 0c35.3 0 64-28.7 64-64l0-192c0-35.3-28.7-64-64-64l-16 0-48 0 0-48 0-80c0-35.3-28.7-64-64-64L192 0c-35.3 0-64 28.7-64 64l0 32L80 96 64 96C28.7 96 0 124.7 0 160L0 448c0 35.3 28.7 64 64 64l128 0zM352 336c8.8 0 16-7.2 16-16l0-32c0-8.8-7.2-16-16-16l-32 0c-8.8 0-16 7.2-16 16l0 32c0 8.8 7.2 16 16 16l32 0zm144 80l0-32c0-8.8-7.2-16-16-16l-32 0c-8.8 0-16 7.2-16 16l0 32c0 8.8 7.2 16 16 16l32 0c8.8 0 16-7.2 16-16zM128 336c8.8 0 16-7.2 16-16l0-32c0-8.8-7.2-16-16-16l-32 0c-8.8 0-16 7.2-16 16l0 32c0 8.8 7.2 16 16 16l32 0zm16 80l0-32c0-8.8-7.2-16-16-16l-32 0c-8.8 0-16 7.2-16 16l0 32c0 8.8 7.2 16 16 16l32 0c8.8 0 16-7.2 16-16zm112-80c8.8 0 16-7.2 16-16l0-32c0-8.8-7.2-16-16-16l-32 0c-8.8 0-16 7.2-16 16l0 32c0 8.8 7.2 16 16 16l32 0zM368 96c0-8.8-7.2-16-16-16l-32 0c-8.8 0-16 7.2-16 16l0 32c0 8.8 7.2 16 16 16l32 0c8.8 0 16-7.2 16-16l0-32zM256 80l-32 0c-8.8 0-16 7.2-16 16l0 32c0 8.8 7.2 16 16 16l32 0c8.8 0 16-7.2 16-16l0-32c0-8.8-7.2-16-16-16zM368 224l0-32c0-8.8-7.2-16-16-16l-32 0c-8.8 0-16 7.2-16 16l0 32c0 8.8 7.2 16 16 16l32 0c8.8 0 16-7.2 16-16zM480 336c8.8 0 16-7.2 16-16l0-32c0-8.8-7.2-16-16-16l-32 0c-8.8 0-16 7.2-16 16l0 32c0 8.8 7.2 16 16 16l32 0zM144 224l0-32c0-8.8-7.2-16-16-16l-32 0c-8.8 0-16 7.2-16 16l0 32c0 8.8 7.2 16 16 16l32 0c8.8 0 16-7.2 16-16zm112 16c8.8 0 16-7.2 16-16l0-32c0-8.8-7.2-16-16-16l-32 0c-8.8 0-16 7.2-16 16l0 32c0 8.8 7.2 16 16 16l32 0z"/></svg>

<svg xmlns="http://www.w3.org/2000/svg" viewBox="0 0 576 512"><!--! Font Awesome Pro 6.5.2 by @fontawesome - https://fontawesome.com License - https://fontawesome.com/license (Commercial License) Copyright 2024 Fonticons, Inc. --><path d="M176 96V64c0-8.8 7.2-16 16-16H384c8.8 0 16 7.2 16 16V192c0 26.5 21.5 48 48 48h64c8.8 0 16 7.2 16 16V448c0 8.8-7.2 16-16 16H384 352 320V416c0-17.7-14.3-32-32-32s-32 14.3-32 32v48H192 64c-8.8 0-16-7.2-16-16V160c0-8.8 7.2-16 16-16h64c26.5 0 48-21.5 48-48zm16 416h64 64 32 32H512c35.3 0 64-28.7 64-64V256c0-35.3-28.7-64-64-64H496 448V144 64c0-35.3-28.7-64-64-64H192c-35.3 0-64 28.7-64 64V96H80 64C28.7 96 0 124.7 0 160V448c0 35.3 28.7 64 64 64H192zM352 336c8.8 0 16-7.2 16-16V288c0-8.8-7.2-16-16-16H320c-8.8 0-16 7.2-16 16v32c0 8.8 7.2 16 16 16h32zm144 80V384c0-8.8-7.2-16-16-16H448c-8.8 0-16 7.2-16 16v32c0 8.8 7.2 16 16 16h32c8.8 0 16-7.2 16-16zM128 336c8.8 0 16-7.2 16-16V288c0-8.8-7.2-16-16-16H96c-8.8 0-16 7.2-16 16v32c0 8.8 7.2 16 16 16h32zm16 80V384c0-8.8-7.2-16-16-16H96c-8.8 0-16 7.2-16 16v32c0 8.8 7.2 16 16 16h32c8.8 0 16-7.2 16-16zm112-80c8.8 0 16-7.2 16-16V288c0-8.8-7.2-16-16-16H224c-8.8 0-16 7.2-16 16v32c0 8.8 7.2 16 16 16h32zM368 96c0-8.8-7.2-16-16-16H320c-8.8 0-16 7.2-16 16v32c0 8.8 7.2 16 16 16h32c8.8 0 16-7.2 16-16V96zM256 80H224c-8.8 0-16 7.2-16 16v32c0 8.8 7.2 16 16 16h32c8.8 0 16-7.2 16-16V96c0-8.8-7.2-16-16-16zM368 224V192c0-8.8-7.2-16-16-16H320c-8.8 0-16 7.2-16 16v32c0 8.8 7.2 16 16 16h32c8.8 0 16-7.2 16-16zM480 336c8.8 0 16-7.2 16-16V288c0-8.8-7.2-16-16-16H448c-8.8 0-16 7.2-16 16v32c0 8.8 7.2 16 16 16h32zM144 224V192c0-8.8-7.2-16-16-16H96c-8.8 0-16 7.2-16 16v32c0 8.8 7.2 16 16 16h32c8.8 0 16-7.2 16-16zm112 16c8.8 0 16-7.2 16-16V192c0-8.8-7.2-16-16-16H224c-8.8 0-16 7.2-16 16v32c0 8.8 7.2 16 16 16h32z"/></svg>
